X:1
T:Title
%%score { 1 | ( 2 3 ) }
L:1/8
Q:1/4=120
M:3/4
K:C
V:1 treble nm="Grand Piano"
V:2 bass 
V:3 bass 
V:1
 [EG]2 [EG]2 [EG]2 | [CE]3 [DF] [EG]2 | [FA]3 [FA] [FA]2 | [EG]6 | [Ec]3 [Ec] [Ec]2 | %5
w: Powell~G.~Fithian * *|||||
 [Ge]2 [Fd]2 [Ec]2 | d4 e2 |[M:4/4] d6 G2 |[M:3/4] [EG]3 [EG] [EG]2 | [CE]2 [DF]2 [EG]2 | %10
w: |||||
 [FA]4 [FA]2 | [EG]4 [Ec][Ec] | [Ge]4 [Ec]2 | [Fd]2 c2 A2 | G4 d2 | [Ec]6 | G3 G G2 | G2 A2 B2 | %18
w: ||||||||
 [Ec]3 [Ec] [Fc]2 | [Ec]4 [EG]2 | [FA]4 [FA]2 | [^FA]2 [Fd]2 [Fc]2 | B3 B c2 | d6 | %24
w: ||||||
 [Ec]3 [Ec] [Ec]2 | [Ge]2 [Gd]2 [Gc]2 | d3 c A2 | c4 A2 | G4 c2 | %29
w: |||||
 e3 d c2[Q:1/4=118][Q:1/4=116][Q:1/4=115][Q:1/4=113] | %30
w: |
 [^Fd]2 [FA]2 [=FB]2[Q:1/4=111][Q:1/4=109][Q:1/4=108][Q:1/4=106][Q:1/4=104][Q:1/4=102][Q:1/4=101][Q:1/4=99][Q:1/4=97][Q:1/4=95][Q:1/4=94][Q:1/4=92] | %31
w: |
 [Ec]6 |] %32
w: |
V:2
 [C,C]2 [C,C]2 [C,C]2 | [C,G,]4 [C,C]2 | [F,C]4 [F,C]2 | [C,C]6 | [C,C]4 [C,C]2 | [C,C]4 [C,C]2 | %6
 [G,B,G]4 [G,CG]2 |[M:4/4] [G,B,G]6 [G,B,F]2 |[M:3/4][K:bass] [C,C]4 [C,C]2 | [C,G,]4 [C,C]2 | %10
 [F,C]4 [F,C]2 | [C,C]4 [C,C]2 | [C,C]4 [C,G,]2 | z2[K:treble] F2 [F,CF]2 | [G,CE]4 [G,B,F]2 | %15
 [C,G,C]6 | [G,B,D]3[K:treble] [G,B,D] [G,CE]2 | [G,DF]2 [G,DF]2 [G,F]2 | [C,G,]3 [C,G,] [C,A,]2 | %19
 [C,G,]4 [C,C]2 | [F,C]4 [F,C]2 | [D,D]2 [D,A,]2 [D,D]2 | [G,DG]3 [G,DG] [G,A,^F]2 | [G,B,F]6 | %24
 [C,C]3 [C,G,] [C,G,]2 | [C,C]2 [D,B,]2 [E,_B,]2 | [F,A,F]3 [F,A,F] [F,CF]2 | [F,A,F]4 [F,CF]2 | %28
 [G,CE]4 [G,CE]2 | [G,CG]3 [G,F][K:bass] [G,E]2 | [D,A,]2 [D,D]2 [G,D]2 | [C,C]6 |] %32
V:3
 x6 | x6 | x6 | x6 | x6 | x6 | x6 |[M:4/4] x8 |[M:3/4][K:bass] x6 | x6 | x6 | x6 | x6 | %13
 [F,A,]4[K:treble] z2 | x6 | x6 | x3[K:treble] x3 | x6 | x6 | x6 | x6 | x6 | x6 | x6 | x6 | x6 | %26
 x6 | x6 | x6 | x4[K:bass] x2 | x6 | x6 |] %32

